libs/ui/packages/crypto-icons/src/svg/CALL.svg

<svg width="24" height="24" viewBox="0 0 24 24" fill="none">
<path d="M12.0176 16.31C12.5154 16.3328 13.0122 16.2468 13.4733 16.058C13.6563 15.9928 13.8311 15.9065 13.9946 15.8015C14.0091 15.7887 14.0261 15.7791 14.0445 15.7734C14.063 15.7677 14.0825 15.766 14.1016 15.7684C14.1208 15.7708 14.1392 15.7773 14.1557 15.7874C14.1722 15.7975 14.1863 15.811 14.1971 15.827L15.3813 17.0458C15.4661 17.1343 15.4631 17.1628 15.3618 17.2325C14.9505 17.5145 14.5036 17.7407 14.0328 17.9053C13.4502 18.1045 12.8415 18.2172 12.2261 18.2398C11.4426 18.2802 10.6585 18.1731 9.9146 17.924C9.27409 17.702 8.67846 17.3673 8.15585 16.9355C7.68388 16.5451 7.2693 16.0902 6.92435 15.584C6.72952 15.3081 6.56126 15.0142 6.42185 14.7065C6.31656 14.4632 6.22172 14.2155 6.1376 13.964C5.99789 13.5026 5.90911 13.0273 5.87285 12.5465C5.83375 12.1935 5.83879 11.837 5.88785 11.4853C5.92535 11.1373 5.98685 10.7923 6.0716 10.4525C6.21326 9.93325 6.41909 9.43365 6.68435 8.96529C7.25423 7.97903 8.09041 7.17326 9.0971 6.64029C9.4791 6.43321 9.88246 6.26824 10.3001 6.14829C10.6389 6.04686 10.9868 5.97903 11.3388 5.94579C11.61 5.91174 11.8839 5.90546 12.1563 5.92704C12.2051 5.93004 12.2538 5.93004 12.3018 5.92704C12.7481 5.93845 13.1909 6.00856 13.6188 6.13554C13.9841 6.23304 14.3373 6.37104 14.6703 6.54954C15.0221 6.72354 15.3528 6.93504 15.6588 7.18104C15.7188 7.23429 15.7661 7.20954 15.8133 7.15854L16.5431 6.38829L17.5946 5.27079C17.7176 5.13804 17.7491 5.13429 17.8818 5.25429C18.2868 5.61954 18.6618 6.01779 18.9993 6.44529C19.4283 6.97795 19.794 7.55858 20.0891 8.17554C20.3253 8.68554 20.5196 9.21354 20.6703 9.75429C20.7971 10.1998 20.8376 10.6543 20.9358 11.0998C20.9369 11.1083 20.9369 11.1168 20.9358 11.1253C20.9358 11.5385 21.0273 11.9525 20.9831 12.3658C20.9328 12.8368 20.9073 13.3138 20.8091 13.778C20.7258 14.168 20.6201 14.552 20.4941 14.93C20.1841 15.868 19.7198 16.7476 19.1201 17.5325C19.0286 17.6525 19.0001 17.6555 18.8951 17.5325C18.5486 17.1815 18.2013 16.8253 17.8503 16.478C17.7776 16.4053 17.7873 16.3483 17.8503 16.2695C18.2201 15.7512 18.5197 15.1863 18.7413 14.5895C18.9401 14.0293 19.0766 13.4488 19.1486 12.8585C19.1921 12.4063 19.2011 11.951 19.1771 11.498C19.1665 11.24 19.1356 10.9832 19.0848 10.73C18.8935 9.69044 18.4728 8.70658 17.8533 7.85004C17.7873 7.75554 17.7048 7.67004 17.6448 7.56954C17.5848 7.46829 17.5788 7.49679 17.5218 7.55379C17.1873 7.89129 16.8431 8.21979 16.5176 8.56404C16.4043 8.68404 16.2746 8.77854 16.1673 8.90154C16.0601 9.02529 15.9303 9.14154 15.8103 9.26154L15.4443 9.62829C15.3873 9.68529 15.3431 9.66279 15.3048 9.60954C14.9949 9.15548 14.5965 8.76874 14.1333 8.47254C13.6858 8.18432 13.184 7.99085 12.6588 7.90404C12.2491 7.84104 11.8326 7.83574 11.4213 7.88829C10.9159 7.94232 10.4263 8.09684 9.98135 8.34279C9.50373 8.60509 9.08448 8.96183 8.7491 9.39129C8.45716 9.76103 8.2318 10.1788 8.0831 10.6258C7.91566 11.1556 7.83983 11.71 7.85885 12.2653C7.85212 13.2615 8.22208 14.2235 8.8946 14.9585C9.29858 15.4053 9.79407 15.7599 10.3473 15.998C10.8723 16.229 11.4446 16.3363 12.0176 16.31Z" fill="#FBB413"/>
<path d="M18.7826 17.7403L15.5876 14.4875C15.5179 14.4148 15.4601 14.4125 15.4039 14.4875C15.1781 14.8167 14.9046 15.1104 14.5924 15.359C14.5166 15.419 14.5166 15.4663 14.5924 15.536C14.8796 15.8233 15.1639 16.1173 15.4481 16.4045C15.8179 16.7803 16.1869 17.156 16.5596 17.5318C16.6256 17.5978 16.6226 17.6293 16.5596 17.6863C16.4111 17.7973 16.2656 17.9113 16.1111 18.002C15.3012 18.5611 14.382 18.9422 13.4141 19.1203C13.038 19.2055 12.6538 19.2501 12.2681 19.253H12.1136C11.8406 19.2718 11.5661 19.2635 11.2961 19.2275C10.9796 19.1803 10.6826 19.142 10.3826 19.076C10.0025 18.9894 9.6306 18.87 9.27113 18.719C8.66049 18.4647 8.08764 18.1278 7.56863 17.7178C7.05606 17.3143 6.59865 16.8453 6.20813 16.3228C5.79645 15.7754 5.4686 15.1697 5.23538 14.5258C4.97985 13.8952 4.83449 13.2255 4.80563 12.5458C4.80025 12.4741 4.80025 12.4022 4.80563 12.3305V11.5858C4.7884 11.5054 4.7884 11.4223 4.80563 11.342C4.80563 11.282 4.83113 11.2258 4.84088 11.1658C4.87238 10.886 4.92188 10.6085 4.98938 10.3348C5.07563 9.96726 5.19038 9.60726 5.33363 9.25776C5.96936 7.7009 7.12562 6.41289 8.60513 5.61351C9.48024 5.12771 10.4497 4.8361 11.4476 4.75851H11.6299C12.6688 4.69258 13.7095 4.85646 14.6779 5.23851L14.9494 5.35176C15.3634 5.53531 15.7598 5.75622 16.1336 6.01176C16.1471 6.02404 16.1629 6.03335 16.1802 6.03911C16.1974 6.04486 16.2157 6.04692 16.2338 6.04515C16.2519 6.04338 16.2694 6.03783 16.2853 6.02884C16.3011 6.01986 16.3148 6.00765 16.3256 5.99301C16.6609 5.61051 17.0141 5.24751 17.3651 4.88151C17.4311 4.81176 17.4341 4.74876 17.3651 4.69176C16.2076 3.85006 14.8664 3.2958 13.4524 3.07476C13.0467 3.01029 12.6374 2.97122 12.2269 2.95776C11.5908 2.9477 10.9556 3.00705 10.3324 3.13476C9.93431 3.21387 9.54195 3.31935 9.15788 3.45051C8.47388 3.67926 7.82138 3.99276 7.21538 4.38201C6.48788 4.84701 5.83013 5.41101 5.26088 6.05901C4.50056 6.92187 3.91407 7.92346 3.53363 9.00876C3.37463 9.46776 3.24863 9.93726 3.15788 10.4143C3.08813 10.832 3.04088 11.2543 3.01538 11.6773C2.98963 12.1317 3.01074 12.5876 3.07838 13.0378C3.12788 13.4855 3.21338 13.928 3.33413 14.3615C3.41963 14.6548 3.50513 14.9488 3.61538 15.233C3.83588 15.803 4.11263 16.3505 4.44263 16.8658C4.85314 17.4996 5.33754 18.0825 5.88563 18.602C6.24038 18.929 6.62063 19.2268 7.02263 19.493C7.56113 19.8613 8.14013 20.168 8.74763 20.4058C9.35213 20.6458 9.98288 20.8168 10.6256 20.9173C11.1079 20.9893 11.5946 21.0313 12.0821 21.0433C12.3971 21.0433 12.7136 20.993 13.0099 20.9863C13.2349 20.9698 13.4576 20.936 13.6766 20.8858C13.9196 20.8445 14.1596 20.7808 14.3996 20.7178C15.2972 20.4829 16.1504 20.1032 16.9256 19.5935C17.6284 19.1435 18.2659 18.5998 18.8209 17.9773C18.9124 17.8723 18.9094 17.8543 18.7834 17.7403H18.7826Z" fill="#FBB413"/>
</svg>

<svg width="24" height="24" viewBox="0 0 24 24" fill="none"><path fill="#fbb413" d="M12.018 16.31a3.4 3.4 0 0 0 1.455-.252q.275-.099.522-.256a.136.136 0 0 1 .202.025l1.184 1.219c.085.088.082.117-.02.187a5.6 5.6 0 0 1-1.328.672c-.583.2-1.191.312-1.807.335a6.3 6.3 0 0 1-2.311-.316 5.7 5.7 0 0 1-1.76-.988 6.5 6.5 0 0 1-1.23-1.352 5.4 5.4 0 0 1-.503-.877 9 9 0 0 1-.284-.743 6.6 6.6 0 0 1-.265-1.418 4.2 4.2 0 0 1 .015-1.06q.056-.524.184-1.033c.141-.52.347-1.02.612-1.488A6.06 6.06 0 0 1 9.097 6.64a6 6 0 0 1 1.203-.492q.51-.152 1.039-.202.408-.05.817-.019.075.005.146 0c.446.011.889.082 1.317.209q.55.146 1.051.414.529.262.989.631c.06.053.107.029.154-.022l.73-.77 1.052-1.118c.123-.133.154-.137.287-.017a9.7 9.7 0 0 1 1.117 1.191 8.8 8.8 0 0 1 1.09 1.73q.354.767.581 1.58c.127.445.168.9.266 1.345v.025c0 .414.091.828.047 1.24-.05.472-.076.949-.174 1.413q-.125.585-.315 1.152a8.9 8.9 0 0 1-1.374 2.602c-.091.12-.12.123-.225 0-.346-.35-.694-.707-1.045-1.054-.072-.073-.063-.13 0-.209a7.2 7.2 0 0 0 .891-1.68c.2-.56.336-1.14.408-1.73q.064-.68.028-1.361a5 5 0 0 0-.092-.768 7.1 7.1 0 0 0-1.232-2.88c-.066-.094-.148-.18-.208-.28-.06-.102-.066-.073-.123-.016-.335.337-.679.666-1.004 1.01-.114.12-.243.215-.35.338-.108.123-.238.24-.358.36l-.366.366c-.057.057-.1.035-.14-.018a4.1 4.1 0 0 0-1.17-1.137 3.9 3.9 0 0 0-1.475-.569 4.4 4.4 0 0 0-1.238-.016 3.8 3.8 0 0 0-1.44.455A4 4 0 0 0 8.75 9.39a4 4 0 0 0-.666 1.235 4.9 4.9 0 0 0-.224 1.64 3.95 3.95 0 0 0 1.036 2.693c.404.446.9.8 1.452 1.039a3.7 3.7 0 0 0 1.67.312"/><path fill="#fbb413" d="m18.783 17.74-3.195-3.252c-.07-.073-.128-.075-.184 0-.226.329-.5.622-.812.871-.075.06-.075.107 0 .177.288.287.572.581.856.868q.554.564 1.112 1.128c.066.066.063.097 0 .154-.149.111-.294.225-.449.316a6.95 6.95 0 0 1-2.697 1.118 5.4 5.4 0 0 1-1.146.133h-.154q-.411.028-.818-.026c-.316-.047-.613-.085-.913-.151a7 7 0 0 1-1.112-.357 7.2 7.2 0 0 1-1.702-1.001 7.5 7.5 0 0 1-1.36-1.395 6.9 6.9 0 0 1-.974-1.797 6 6 0 0 1-.43-1.98 1.4 1.4 0 0 1 0-.215v-.745a.6.6 0 0 1 0-.244c0-.06.026-.116.036-.176q.046-.42.148-.831a7.26 7.26 0 0 1 3.616-4.721 7 7 0 0 1 2.843-.855h.182a7.1 7.1 0 0 1 3.048.48l.271.113q.622.275 1.185.66a.13.13 0 0 0 .192-.019c.335-.382.688-.745 1.04-1.111.065-.07.068-.133 0-.19a9 9 0 0 0-3.914-1.617 10 10 0 0 0-1.225-.117 8.8 8.8 0 0 0-1.895.177q-.598.118-1.174.316a8.7 8.7 0 0 0-1.943.931 9.2 9.2 0 0 0-1.954 1.677 8.9 8.9 0 0 0-1.727 2.95q-.24.689-.376 1.405-.104.628-.143 1.263-.038.684.063 1.36.075.673.256 1.324c.086.294.171.588.281.872q.331.857.828 1.633a9.5 9.5 0 0 0 1.443 1.736q.533.491 1.137.891a8.6 8.6 0 0 0 1.725.913c.604.24 1.235.41 1.878.511q.724.108 1.456.126c.315 0 .632-.05.928-.057q.338-.024.667-.1c.243-.041.483-.105.723-.168a8.5 8.5 0 0 0 2.526-1.125 9.2 9.2 0 0 0 1.895-1.616c.091-.105.088-.123-.038-.237"/></svg>
